images/192197.svg

<?xml version="1.0" encoding="UTF-8"?>
<svg xmlns="http://www.w3.org/2000/svg" xmlns:xlink="http://www.w3.org/1999/xlink" width="300pt" height="300pt" viewBox="0 0 300 300" version="1.1">
<defs>
<g>
<symbol overflow="visible" id="glyph0-0">
<path style="stroke:none;" d="M 0.796875 2.828125 L 0.796875 -11.28125 L 8.796875 -11.28125 L 8.796875 2.828125 Z M 1.703125 1.9375 L 7.90625 1.9375 L 7.90625 -10.390625 L 1.703125 -10.390625 Z M 1.703125 1.9375 "/>
</symbol>
<symbol overflow="visible" id="glyph0-1">
<path style="stroke:none;" d="M 6.3125 -10.59375 C 5.164062 -10.59375 4.253906 -10.164062 3.578125 -9.3125 C 2.898438 -8.457031 2.5625 -7.296875 2.5625 -5.828125 C 2.5625 -4.359375 2.898438 -3.195312 3.578125 -2.34375 C 4.253906 -1.488281 5.164062 -1.0625 6.3125 -1.0625 C 7.457031 -1.0625 8.363281 -1.488281 9.03125 -2.34375 C 9.695312 -3.195312 10.03125 -4.359375 10.03125 -5.828125 C 10.03125 -7.296875 9.695312 -8.457031 9.03125 -9.3125 C 8.363281 -10.164062 7.457031 -10.59375 6.3125 -10.59375 Z M 6.3125 -11.875 C 7.945312 -11.875 9.253906 -11.328125 10.234375 -10.234375 C 11.210938 -9.140625 11.703125 -7.671875 11.703125 -5.828125 C 11.703125 -3.984375 11.210938 -2.507812 10.234375 -1.40625 C 9.253906 -0.3125 7.945312 0.234375 6.3125 0.234375 C 4.664062 0.234375 3.351562 -0.3125 2.375 -1.40625 C 1.394531 -2.507812 0.90625 -3.984375 0.90625 -5.828125 C 0.90625 -7.671875 1.394531 -9.140625 2.375 -10.234375 C 3.351562 -11.328125 4.664062 -11.875 6.3125 -11.875 Z M 6.3125 -11.875 "/>
</symbol>
<symbol overflow="visible" id="glyph0-2">
<path style="stroke:none;" d="M 1.578125 -11.671875 L 3.15625 -11.671875 L 3.15625 -6.890625 L 8.890625 -6.890625 L 8.890625 -11.671875 L 10.46875 -11.671875 L 10.46875 0 L 8.890625 0 L 8.890625 -5.5625 L 3.15625 -5.5625 L 3.15625 0 L 1.578125 0 Z M 1.578125 -11.671875 "/>
</symbol>
</g>
</defs>
<g id="surface39333">
<rect x="0" y="0" width="300" height="300" style="fill:rgb(100%,100%,100%);fill-opacity:1;stroke:none;"/>
<path style="fill:none;stroke-width:1.2;stroke-linecap:butt;stroke-linejoin:miter;stroke:rgb(0%,0%,0%);stroke-opacity:1;stroke-miterlimit:10;" d="M 126.738281 38.539062 L 154.371094 64.988281 "/>
<path style="fill:none;stroke-width:1;stroke-linecap:butt;stroke-linejoin:miter;stroke:rgb(0%,0%,0%);stroke-opacity:1;stroke-miterlimit:10;" d="M 145.277344 102.144531 L 145.277344 102.144531 M 146.484375 99.398438 L 145.472656 99.148438 M 147.695312 96.652344 L 145.667969 96.15625 M 148.902344 93.90625 L 145.863281 93.164062 M 150.113281 91.160156 L 146.0625 90.167969 M 151.320312 88.414062 L 146.257812 87.175781 M 152.53125 85.667969 L 146.453125 84.183594 M 153.738281 82.921875 L 146.648438 81.1875 M 154.945312 80.175781 L 146.84375 78.195312 M 156.15625 77.433594 L 147.039062 75.203125 M 157.363281 74.6875 L 147.234375 72.207031 M 158.574219 71.941406 L 147.429688 69.214844 M 159.78125 69.195312 L 147.628906 66.21875 M 160.925781 66.59375 L 147.8125 63.386719 "/>
<path style="fill:none;stroke-width:1.2;stroke-linecap:butt;stroke-linejoin:miter;stroke:rgb(0%,0%,0%);stroke-opacity:1;stroke-miterlimit:10;" d="M 145.277344 102.144531 L 172.90625 128.59375 "/>
<path style="fill:none;stroke-width:1.2;stroke-linecap:butt;stroke-linejoin:miter;stroke:rgb(0%,0%,0%);stroke-opacity:1;stroke-miterlimit:10;" d="M 145.277344 102.144531 L 108.554688 112.847656 "/>
<path style="fill:none;stroke-width:1.2;stroke-linecap:butt;stroke-linejoin:miter;stroke:rgb(0%,0%,0%);stroke-opacity:1;stroke-miterlimit:10;" d="M 172.90625 128.59375 L 163.816406 165.75 "/>
<path style="fill:none;stroke-width:1.2;stroke-linecap:butt;stroke-linejoin:miter;stroke:rgb(0%,0%,0%);stroke-opacity:1;stroke-miterlimit:10;" d="M 180.738281 134.449219 L 173.464844 164.171875 "/>
<path style="fill:none;stroke-width:1.2;stroke-linecap:butt;stroke-linejoin:miter;stroke:rgb(0%,0%,0%);stroke-opacity:1;stroke-miterlimit:10;" d="M 209.628906 117.890625 L 172.90625 128.59375 "/>
<path style="fill:none;stroke-width:1.2;stroke-linecap:butt;stroke-linejoin:miter;stroke:rgb(0%,0%,0%);stroke-opacity:1;stroke-miterlimit:10;" d="M 163.816406 165.75 L 191.445312 192.199219 "/>
<path style="fill:none;stroke-width:1.2;stroke-linecap:butt;stroke-linejoin:miter;stroke:rgb(0%,0%,0%);stroke-opacity:1;stroke-miterlimit:10;" d="M 191.445312 192.199219 L 228.167969 181.496094 "/>
<path style="fill:none;stroke-width:1.2;stroke-linecap:butt;stroke-linejoin:miter;stroke:rgb(0%,0%,0%);stroke-opacity:1;stroke-miterlimit:10;" d="M 192.597656 182.488281 L 221.976562 173.925781 "/>
<path style="fill:none;stroke-width:1.2;stroke-linecap:butt;stroke-linejoin:miter;stroke:rgb(0%,0%,0%);stroke-opacity:1;stroke-miterlimit:10;" d="M 228.167969 181.496094 L 237.257812 144.34375 "/>
<path style="fill:none;stroke-width:1.2;stroke-linecap:butt;stroke-linejoin:miter;stroke:rgb(0%,0%,0%);stroke-opacity:1;stroke-miterlimit:10;" d="M 228.167969 181.496094 L 241.980469 194.722656 "/>
<path style="fill:none;stroke-width:1.2;stroke-linecap:butt;stroke-linejoin:miter;stroke:rgb(100%,0%,0%);stroke-opacity:1;stroke-miterlimit:10;" d="M 241.980469 194.722656 L 255.796875 207.945312 "/>
<path style="fill:none;stroke-width:1.2;stroke-linecap:butt;stroke-linejoin:miter;stroke:rgb(0%,0%,0%);stroke-opacity:1;stroke-miterlimit:10;" d="M 237.257812 144.34375 L 209.628906 117.890625 "/>
<path style="fill:none;stroke-width:1.2;stroke-linecap:butt;stroke-linejoin:miter;stroke:rgb(0%,0%,0%);stroke-opacity:1;stroke-miterlimit:10;" d="M 228.273438 148.199219 L 206.167969 127.039062 "/>
<path style=" stroke:none;fill-rule:nonzero;fill:rgb(100%,100%,100%);fill-opacity:1;" d="M 243.796875 198.445312 L 268.796875 198.445312 L 268.796875 217.445312 L 243.796875 217.445312 Z M 243.796875 198.445312 "/>
<g style="fill:rgb(100%,0%,0%);fill-opacity:1;">
  <use xlink:href="#glyph0-1" x="243.796875" y="213.296875"/>
  <use xlink:href="#glyph0-2" x="256.390625" y="213.296875"/>
</g>
<path style="fill:none;stroke-width:1;stroke-linecap:butt;stroke-linejoin:miter;stroke:rgb(0%,0%,0%);stroke-opacity:1;stroke-miterlimit:10;" d="M 108.554688 112.847656 L 108.554688 112.847656 M 106.78125 110.425781 L 106.058594 111.179688 M 105.007812 108.007812 L 103.566406 109.511719 M 103.234375 105.585938 L 101.070312 107.847656 M 101.460938 103.167969 L 98.578125 106.179688 M 99.6875 100.75 L 96.082031 104.515625 M 97.914062 98.328125 L 93.585938 102.847656 M 96.140625 95.910156 L 91.09375 101.179688 M 94.367188 93.488281 L 88.597656 99.515625 M 92.59375 91.070312 L 86.105469 97.847656 M 90.820312 88.648438 L 83.609375 96.183594 M 89.046875 86.230469 L 81.113281 94.515625 M 87.273438 83.8125 L 78.621094 92.847656 M 85.59375 81.519531 L 76.257812 91.269531 "/>
<path style="fill:none;stroke-width:1.2;stroke-linecap:butt;stroke-linejoin:miter;stroke:rgb(0%,0%,0%);stroke-opacity:1;stroke-miterlimit:10;" d="M 108.554688 112.847656 L 99.464844 150 "/>
<path style="fill:none;stroke-width:1.2;stroke-linecap:butt;stroke-linejoin:miter;stroke:rgb(0%,0%,0%);stroke-opacity:1;stroke-miterlimit:10;" d="M 80.925781 86.394531 L 44.203125 97.097656 "/>
<path style="fill:none;stroke-width:1.2;stroke-linecap:butt;stroke-linejoin:miter;stroke:rgb(0%,0%,0%);stroke-opacity:1;stroke-miterlimit:10;" d="M 99.464844 150 L 62.742188 160.703125 "/>
<path style="fill:none;stroke-width:1.2;stroke-linecap:butt;stroke-linejoin:miter;stroke:rgb(0%,0%,0%);stroke-opacity:1;stroke-miterlimit:10;" d="M 98.308594 159.710938 L 68.929688 168.273438 "/>
<path style="fill:none;stroke-width:1.2;stroke-linecap:butt;stroke-linejoin:miter;stroke:rgb(0%,0%,0%);stroke-opacity:1;stroke-miterlimit:10;" d="M 127.09375 176.449219 L 99.464844 150 "/>
<path style="fill:none;stroke-width:1.2;stroke-linecap:butt;stroke-linejoin:miter;stroke:rgb(0%,0%,0%);stroke-opacity:1;stroke-miterlimit:10;" d="M 62.742188 160.703125 L 53.648438 197.855469 "/>
<path style="fill:none;stroke-width:1.2;stroke-linecap:butt;stroke-linejoin:miter;stroke:rgb(0%,0%,0%);stroke-opacity:1;stroke-miterlimit:10;" d="M 53.648438 197.855469 L 81.277344 224.308594 "/>
<path style="fill:none;stroke-width:1.2;stroke-linecap:butt;stroke-linejoin:miter;stroke:rgb(0%,0%,0%);stroke-opacity:1;stroke-miterlimit:10;" d="M 62.636719 194 L 84.738281 215.160156 "/>
<path style="fill:none;stroke-width:1.2;stroke-linecap:butt;stroke-linejoin:miter;stroke:rgb(0%,0%,0%);stroke-opacity:1;stroke-miterlimit:10;" d="M 81.277344 224.308594 L 118 213.605469 "/>
<path style="fill:none;stroke-width:1.2;stroke-linecap:butt;stroke-linejoin:miter;stroke:rgb(0%,0%,0%);stroke-opacity:1;stroke-miterlimit:10;" d="M 81.277344 224.308594 L 76.730469 242.882812 "/>
<path style="fill:none;stroke-width:1.2;stroke-linecap:butt;stroke-linejoin:miter;stroke:rgb(100%,0%,0%);stroke-opacity:1;stroke-miterlimit:10;" d="M 76.730469 242.882812 L 72.1875 261.460938 "/>
<path style="fill:none;stroke-width:1.2;stroke-linecap:butt;stroke-linejoin:miter;stroke:rgb(0%,0%,0%);stroke-opacity:1;stroke-miterlimit:10;" d="M 118 213.605469 L 127.09375 176.449219 "/>
<path style="fill:none;stroke-width:1.2;stroke-linecap:butt;stroke-linejoin:miter;stroke:rgb(0%,0%,0%);stroke-opacity:1;stroke-miterlimit:10;" d="M 110.167969 207.75 L 117.441406 178.027344 "/>
<path style=" stroke:none;fill-rule:nonzero;fill:rgb(100%,100%,100%);fill-opacity:1;" d="M 60.1875 251.960938 L 85.1875 251.960938 L 85.1875 270.960938 L 60.1875 270.960938 Z M 60.1875 251.960938 "/>
<g style="fill:rgb(100%,0%,0%);fill-opacity:1;">
  <use xlink:href="#glyph0-2" x="60.1875" y="266.8125"/>
  <use xlink:href="#glyph0-1" x="72.21875" y="266.8125"/>
</g>
</g>
</svg>

<svg xmlns="http://www.w3.org/2000/svg" xmlns:xlink="http://www.w3.org/1999/xlink" width="300pt" height="300pt" viewBox="0 0 300 300"><defs><symbol overflow="visible"><path d="M.797 2.828v-14.11h8V2.83zm.906-.89h6.203v-12.33H1.703zm0 0"/></symbol><symbol overflow="visible" id="a"><path d="M6.313-10.594c-1.15 0-2.06.43-2.735 1.28-.68.857-1.015 2.017-1.015 3.486 0 1.47.335 2.633 1.015 3.484.676.856 1.586 1.28 2.735 1.28 1.144.002 2.05-.424 2.718-1.28.665-.85 1-2.015 1-3.484 0-1.47-.335-2.63-1-3.484-.667-.852-1.573-1.282-2.717-1.282zm0-1.28c1.632 0 2.94.546 3.92 1.64.978 1.093 1.47 2.562 1.47 4.406 0 1.844-.492 3.32-1.47 4.422-.98 1.093-2.288 1.64-3.92 1.64-1.65 0-2.96-.546-3.938-1.64-.98-1.102-1.47-2.578-1.47-4.422 0-1.844.49-3.313 1.47-4.406.977-1.094 2.29-1.64 3.938-1.64zm0 0"/></symbol><symbol overflow="visible" id="b"><path d="M1.578-11.672h1.578v4.78H8.89v-4.78h1.58V0H8.89v-5.563H3.157V0H1.578zm0 0"/></symbol></defs><g><path fill="#fff" d="M0 0h300v300H0z"/><path d="M126.738 38.54l27.633 26.448" stroke-width="1.2" stroke="#000" stroke-miterlimit="10" fill="none"/><path d="M145.277 102.145m1.207-2.747l-1.01-.25m2.22-2.496l-2.026-.496m3.234-2.25l-3.04-.742m4.25-2.004l-4.05-.992m5.258-1.754l-5.062-1.238m6.273-1.508l-6.077-1.484m7.285-1.262l-7.09-1.734m8.297-1.012l-8.1-1.98m9.31-.762l-9.116-2.23m10.323-.516l-10.13-2.48m11.34-.267l-11.143-2.725m12.35-.02l-12.15-2.976m13.296.374l-13.113-3.207" stroke="#000" stroke-miterlimit="10" fill="none"/><path d="M145.277 102.145l27.63 26.45M145.277 102.145l-36.722 10.703M172.906 128.594l-9.09 37.156M180.738 134.45l-7.273 29.722M209.63 117.89l-36.724 10.704M163.816 165.75l27.63 26.45M191.445 192.2l36.723-10.704M192.598 182.488l29.38-8.562M228.168 181.496l9.09-37.152M228.168 181.496l13.812 13.227" stroke-width="1.2" stroke="#000" stroke-miterlimit="10" fill="none"/><path d="M241.98 194.723l13.817 13.222" stroke-width="1.2" stroke="#f00" stroke-miterlimit="10" fill="none"/><path d="M237.258 144.344l-27.63-26.453M228.273 148.2l-22.105-21.16" stroke-width="1.2" stroke="#000" stroke-miterlimit="10" fill="none"/><path d="M243.797 198.445h25v19h-25zm0 0" fill="#fff"/><g fill="#f00"><use xlink:href="#a" x="243.797" y="213.297"/><use xlink:href="#b" x="256.391" y="213.297"/></g><path d="M108.555 112.848m-1.774-2.422l-.72.754m-1.052-3.172l-1.442 1.504m-.332-3.926l-2.164 2.262m.39-4.68l-2.882 3.012m1.11-5.43l-3.606 3.766m1.832-6.188l-4.328 4.52m2.555-6.938l-5.046 5.27m3.273-7.692l-5.77 6.028m3.997-8.446l-6.49 6.778m4.716-9.2l-7.21 7.536m5.437-9.954l-7.934 8.286m6.16-10.704L78.62 92.85m6.974-11.328l-9.336 9.75" stroke="#000" stroke-miterlimit="10" fill="none"/><path d="M108.555 112.848L99.465 150M80.926 86.395L44.203 97.098M99.465 150l-36.723 10.703M98.31 159.71l-29.38 8.563M127.094 176.45L99.464 150M62.742 160.703l-9.094 37.152M53.648 197.855l27.63 26.454M62.637 194l22.1 21.16M81.277 224.31L118 213.604M81.277 224.31l-4.547 18.573" stroke-width="1.2" stroke="#000" stroke-miterlimit="10" fill="none"/><path d="M76.73 242.883l-4.543 18.578" stroke-width="1.2" stroke="#f00" stroke-miterlimit="10" fill="none"/><path d="M118 213.605l9.094-37.156M110.168 207.75l7.273-29.723" stroke-width="1.2" stroke="#000" stroke-miterlimit="10" fill="none"/><path d="M60.188 251.96h25v19h-25zm0 0" fill="#fff"/><g fill="#f00"><use xlink:href="#b" x="60.188" y="266.813"/><use xlink:href="#a" x="72.219" y="266.813"/></g></g></svg>
